X: 18
T: Berely Square
%R: minuet
B: T. Davis "24 Country Dances for the Year 1748"
S: http://imslp.org/wiki/24_Country_Dances_for_the_Year_1748_(Davis,_T.) 2013-11-30
Z: 2013 John Chambers <jc:trillian.mit.edu>
N: The 2nd strain has initial repeat but no final repeat; not fixed.
N: Bass last bar has extra beat; fixed by shortening the first two notes to match the first strain's ending.
M: 3/4
L: 1/16
K: D
% - - - - - - - - - - - - - - - - - - - - - - - - -
% Voice 1 has 6-bar staffs for small printing, 4-bar staffs might be better for reading.
V: 1 staves=2
ag |\
f2 d4 ef (gfed) | e2 A4 B2 A2G2 |\
F2A2G2B2 E2g2 | (fedc) d2 D4 :|\
|: fg |\
(agfe) ^d2 b4 (ga) | (bagf) g2 e4 ef |
(gfed) c2 a4 ( fg) | (agfe) f2 d4 A2 |\
B2 g4 B2 (edcB) | ^c2 a4 c2 fedc |\
dfb2 cea2 Bdg2 | (fedc) d2 D4 |]
% - - - - - - - - - - - - - - - - - - - - - - - - -
% Voice 2 preserves the original staff breaks.
V: 2 clef=bass middle=d
z2 |\
d8 "6"b4 | "6;3"a4 z4 "6;5"c4 | "5;3"d4 g4- g2"6"e2 | "6"f2a2 d4 z2 :|\
|: z2 |\
z4 "#"B4 B4 | z4 e4 e4 |
z4 A4 A4 | z4 d4 "b5"f4 |\
g4 z4 "6;5"^g4 | a4 z4 "6"a4 | d4 "6;4"g4- g2e2 | f2a2 d4 z2 |]
%%begintext align
%% The first Man turn his Partner & then the 2d Man, & 2d Wo. & then his Partner: and mind that he begins
%% with his right Hand; and changes his Hand every Turn, which will bring him properly into his
%% Place | Cross over & figure a Top: then the first Man turn the 3d Wo. & then his Partner, but the first
%% Wo. turns the 2d Man at the same Time the 1st Man is turning the 3d Wo. lead thro' the 3d Cu. & cast up
%% into the 2d Cu. Place then the 1st Man turns the 2d Wo. & then his Partner the first Wo. turning the 3d
%% Man at the same Time her Partner is turning the 2d Woman.
%%endtext

%%sep 1 1 500
%%sep 1 1 500

